X:13
T:Bänklialp-Juiz  Bb
T:Anni Wallimann  (23.8.1928-31.2.2014)
T:Dirigenten-Notiz, Edi Gasser
C:Unterwalden (CH)
%%partsbox
M:3/4
R:Naturjodel
L:1/8
K:Bb
[P:A] F>E | D3F d>c | B3 F fd | c3F fd/c/ | 
B>c !fermata!d2 F>E | D3F d>c | B3F fd | c3F fd/c/ | !fermata!B4 || 
M:3/4
[P:B] G>B | e3e gf/e/  | d4 Fd/B/ | Ac FF Ed/c/ | BD !fermata!F2 G>B | 
e3e gf/e/ | !breath!d4 F f/d/ | ce FF Ed/c/ | !fermata!B4 || 
M:3/4
[P:C] !fermata!f2!fermata!d2 | c3EF2 | EF AE Fc | B3DF2  | Ff dF dB | A3CF2 | 
Ff eF dc | B3D !fermata!F2 | z2!fermata!f2!fermata!d2 | c3EF2 | 
EF AE Fc | B3DF2 | Ff dF dB | A3CF2 | "rit." Ff eF dc | !fermata!B4 ||
"Schlussruf" F>E | D3F fe | !breath!d3 "rit."d gd | fB df cd | !fermata!B4 |]
W:
W: notiert Edi Gasser. Angaben: Anni Wallimann
W:
W:UJV-Naturjodelsammlung: Code-Nr: 06-07
W:http://www.naturjodler.ch/code 06.htm  (with AUDIO)
%May 2, 2018

